assets/awscloudwatchmetricsinsights/original.svg

<svg height="48" viewBox="0 0 48 48" width="48" xmlns="http://www.w3.org/2000/svg"><path d="m19.012 34.688-.01-6.768c-.954.351-2.193.558-3.66.558-1.275 0-3.04-.172-4.357-.678l.015 6.95c.05.056.532.446 1.896.677a12 12 0 0 0 1.604.159 14 14 0 0 0 1.485-.026q.59-.042 1.119-.133c1.365-.231 1.846-.621 1.908-.739m-4.012-9.673c-2.02 0-3.22.411-3.734.711.5.294 1.933.752 4.077.752 2.105 0 3.168-.451 3.547-.704-.367-.234-1.61-.759-3.89-.759m0-2c2.987 0 6 .879 6 2.844v8.891c0 .764-.463 2.124-3.561 2.649a14 14 0 0 1 -1.866.186 16 16 0 0 1 -1.701-.03c-.46-.033-.9-.086-1.311-.156-3.098-.525-3.561-1.885-3.561-2.649v-8.891c0-1.965 3.014-2.844 6-2.844m25-17.515c0 .827.673 1.5 1.5 1.5s1.5-.673 1.5-1.5-.673-1.5-1.5-1.5-1.5.673-1.5 1.5m-10 17c0-.827-.673-1.5-1.5-1.5s-1.5.673-1.5 1.5.673 1.5 1.5 1.5 1.5-.673 1.5-1.5m-13.5-10.5c.827 0 1.5-.673 1.5-1.5s-.673-1.5-1.5-1.5-1.5.673-1.5 1.5.673 1.5 1.5 1.5m21.5-6.5c0-1.93 1.57-3.5 3.5-3.5s3.5 1.57 3.5 3.5-1.57 3.5-3.5 3.5a3.5 3.5 0 0 1 -.654-.066l-9.135 12.18c.185.425.289.893.289 1.386 0 1.93-1.57 3.5-3.5 3.5s-3.5-1.57-3.5-3.5c0-.538.132-1.042.35-1.498l-7.35-7.352c-.456.218-.961.35-1.5.35-1.928 0-3.5-1.57-3.5-3.5s1.572-3.5 3.5-3.5c1.93 0 3.5 1.57 3.5 3.5a3.46 3.46 0 0 1 -.516 1.806l7.21 7.211a3.47 3.47 0 0 1 1.806-.517c.693 0 1.335.208 1.879.557l8.671-11.563a3.49 3.49 0 0 1 -1.05-2.494m-16 38.5h2v-3h-2zm21.064-5-.014-6h-20.05v-2h20.045l-.045-19h2v27.063a1.94 1.94 0 0 1 -1.936 1.937h-17.064v3h8v2h-21v-2h7v-3h-16.048a1.954 1.954 0 0 1 -1.952-1.952v-12.048h2v4h3v2h-3v6.048zm-39.064-21h-2v-7.063a1.94 1.94 0 0 1 1.937-1.937h4.328c.83-3.822 4.236-6.695 8.303-6.695s7.472 2.873 8.302 6.695h9.13v2h-8.94a8.5 8.5 0 0 1 -.458 2.588l-1.891-.654a6.508 6.508 0 0 0 -6.143-8.629 6.51 6.51 0 0 0 -6.5 6.5 6.508 6.508 0 0 0 8.713 6.114l.679 1.881a8.5 8.5 0 0 1 -2.892.505 8.47 8.47 0 0 1 -5.98-2.467l-6.838 7.243-1.455-1.373 7.04-7.458a8.43 8.43 0 0 1 -1.257-4.25h-4.141z" fill="#e7157b" fill-rule="evenodd"/></svg>

<svg xmlns="http://www.w3.org/2000/svg" width="48" height="48" viewBox="0 0 48 48"><title>Icon-Resource/Management-Governance/Res_Amazon-CloudWatch_Metrics-Insights_48</title><g id="Icon-Resource/Management-Governance/Res_Amazon-CloudWatch_Metrics-Insights_48" fill="none" fill-rule="evenodd" stroke="none" stroke-width="1"><path id="Fill-1" fill="#e7157b" d="m19.012 34.688-.01-6.768c-.954.351-2.193.558-3.66.558-1.275 0-3.04-.172-4.357-.678L11 34.75c.05.056.532.446 1.896.677a12 12 0 0 0 1.604.159 14 14 0 0 0 1.485-.026q.59-.042 1.119-.133c1.365-.231 1.846-.621 1.908-.739M15 25.015c-2.02 0-3.22.411-3.734.711.5.294 1.933.752 4.077.752 2.105 0 3.168-.451 3.547-.704-.367-.234-1.61-.759-3.89-.759m0-2c2.987 0 6 .879 6 2.844v8.891c0 .764-.463 2.124-3.561 2.649a14 14 0 0 1-1.866.186 16 16 0 0 1-1.701-.03c-.46-.033-.9-.086-1.311-.156C9.463 36.874 9 35.514 9 34.75v-8.891c0-1.965 3.014-2.844 6-2.844M40 5.5c0 .827.673 1.5 1.5 1.5S43 6.327 43 5.5 42.327 4 41.5 4 40 4.673 40 5.5m-10 17c0-.827-.673-1.5-1.5-1.5s-1.5.673-1.5 1.5.673 1.5 1.5 1.5 1.5-.673 1.5-1.5M16.5 12c.827 0 1.5-.673 1.5-1.5S17.327 9 16.5 9s-1.5.673-1.5 1.5.673 1.5 1.5 1.5M38 5.5C38 3.57 39.57 2 41.5 2S45 3.57 45 5.5 43.43 9 41.5 9a3.5 3.5 0 0 1-.654-.066l-9.135 12.18c.185.425.289.893.289 1.386 0 1.93-1.57 3.5-3.5 3.5S25 24.43 25 22.5c0-.538.132-1.042.35-1.498L18 13.65c-.456.218-.961.35-1.5.35-1.928 0-3.5-1.57-3.5-3.5S14.572 7 16.5 7c1.93 0 3.5 1.57 3.5 3.5a3.46 3.46 0 0 1-.516 1.806l7.21 7.211A3.47 3.47 0 0 1 28.5 19c.693 0 1.335.208 1.879.557L39.05 7.994A3.49 3.49 0 0 1 38 5.5M22 44h2v-3h-2zm21.064-5-.014-6H23v-2h20.045L43 12h2v27.063A1.94 1.94 0 0 1 43.064 41H26v3h8v2H13v-2h7v-3H3.952A1.954 1.954 0 0 1 2 39.048V27h2v4h3v2H4v6.048zM4 18H2v-7.063A1.94 1.94 0 0 1 3.937 9h4.328c.83-3.822 4.236-6.695 8.303-6.695S24.04 5.178 24.87 9H34v2h-8.94a8.5 8.5 0 0 1-.458 2.588l-1.891-.654a6.508 6.508 0 0 0-6.143-8.629 6.51 6.51 0 0 0-6.5 6.5 6.508 6.508 0 0 0 8.713 6.114l.679 1.881a8.5 8.5 0 0 1-2.892.505 8.47 8.47 0 0 1-5.98-2.467L3.75 24.081l-1.455-1.373 7.04-7.458A8.43 8.43 0 0 1 8.078 11H3.937z"/></g></svg>
